X: 1
T: Hills Of Dungannon, The
M: 6/8
L: 1/8
R: jig
K: Dmaj
|:AG | FEF DFA | dcd fed | cBA BGE | AFD ecA |
dcd AGF | Eed cBA | e/f/ge afd | ABc d :|
|:fg | agf fed | c/d/ed cBA | GdG FdF | Eed cBA |
Ggg gfe | dag fed | cag fdA | dAF D :|
